X: 06045
T: LUDGER LAFORTE
C: Bob McQuillen June'81
B: Bob's Note Book 6 #45
%R: reel
Z: 2021 John Chambers <jc:trillian.mit.edu>
M: C
L: 1/8
K: A
AF \
| E2EA FEAF | FEAc e2ef | efec BAcB | AcBA F2AF |\
| E2EA FEAF | FEAc ecaf | e2fa fecA | B2A2 A2 :|
|: cd \
| ecef ecfc | e2ec B2cB | ABAF EFAB | c2f2 f2Ac |\
| ecef ecfa | efec BAcB | AcBA FEAB | c2A2 A2 :|
%%begintext align
%% One of our
%% favorite musicians is a great Cape Breton-style
%% fiddler named Ludger (pro. "Loo-jay")
%% Laforte -- We get to hear him every year at
%% the French Club in Waltham, Mass.
%%endtext

%%sep 1 1 500

%%sep 1 1 500

